assets/Cherry blossom/Flat/cherry_blossom_flat.svg

<svg width="32" height="32" viewBox="0 0 32 32" fill="none" xmlns="http://www.w3.org/2000/svg">
<path d="M26.2296 19.7655C28.6996 18.9655 30.1896 16.5755 29.9896 14.0855C29.9696 13.8555 29.7896 13.6555 29.5596 13.6155C29.5596 13.6155 28.6696 13.4255 28.4696 13.3855C28.3696 13.3655 28.3296 13.2355 28.3896 13.1655C28.5196 13.0255 29.1396 12.3255 29.1396 12.3255C29.2996 12.1555 29.3296 11.8855 29.2096 11.6855C27.9196 9.5555 25.3096 8.4955 22.8296 9.3055C22.1196 9.5355 21.4996 9.9555 20.9596 10.4855C21.2996 9.8055 21.4996 9.0955 21.4996 8.3455C21.4996 5.7455 19.6896 3.5855 17.2596 3.0155C17.0296 2.9655 16.7896 3.0755 16.6696 3.2755C16.6696 3.2755 16.2096 4.0655 16.1096 4.2455C16.0596 4.3355 15.9196 4.3255 15.8796 4.2555C15.7796 4.0855 15.3196 3.2755 15.3196 3.2755C15.1996 3.0755 14.9596 2.9555 14.7396 3.0155C12.3196 3.5755 10.4996 5.7355 10.4996 8.3355C10.4996 9.0855 10.7096 9.7955 11.0396 10.4755C10.4996 9.9455 9.88963 9.5355 9.17963 9.3055C6.69963 8.4955 4.08963 9.5555 2.79963 11.6855C2.67963 11.8855 2.70963 12.1455 2.86963 12.3255C2.86963 12.3255 3.47963 13.0055 3.61963 13.1555C3.68963 13.2255 3.63963 13.3655 3.54963 13.3855C3.35963 13.4255 2.44963 13.6155 2.44963 13.6155C2.21963 13.6655 2.03963 13.8555 2.01963 14.0855C1.80963 16.5655 3.29963 18.9555 5.77963 19.7655C6.49963 19.9955 7.23963 20.0255 7.99963 19.9055C7.31963 20.2555 6.71963 20.7155 6.27963 21.3255C4.74963 23.4255 4.94963 26.2355 6.57963 28.1255C6.72963 28.3055 6.98963 28.3555 7.20963 28.2555C7.20963 28.2555 8.03963 27.8855 8.22963 27.7955C8.31963 27.7555 8.42963 27.8355 8.41963 27.9255C8.39963 28.1155 8.29963 29.0455 8.29963 29.0455C8.27963 29.2755 8.39963 29.5155 8.61963 29.6055C10.9196 30.5655 13.6496 29.8855 15.1796 27.7855C15.6196 27.1755 15.8696 26.4855 15.9996 25.7355C16.1296 26.4855 16.3796 27.1855 16.8196 27.7855C18.3496 29.8855 21.0796 30.5655 23.3796 29.6055C23.5996 29.5155 23.7196 29.2855 23.6996 29.0455C23.6996 29.0455 23.5996 28.1355 23.5796 27.9355C23.5696 27.8355 23.6796 27.7555 23.7696 27.7955C23.9496 27.8755 24.7996 28.2555 24.7996 28.2555C25.0096 28.3555 25.2796 28.3055 25.4296 28.1255C27.0596 26.2355 27.2596 23.4255 25.7296 21.3255C25.2896 20.7155 24.6896 20.2655 24.0096 19.9055C24.7696 20.0255 25.5096 19.9955 26.2296 19.7655Z" fill="#FF6DC6"/>
<path d="M16.5096 13.2517C16.8085 13.0788 17.0096 12.7556 17.0096 12.3855C17.0096 11.8332 16.5619 11.3855 16.0096 11.3855C15.4573 11.3855 15.0096 11.8332 15.0096 12.3855C15.0096 12.7556 15.2107 13.0788 15.5096 13.2517V14.5361C14.8041 14.6812 14.2083 15.1271 13.8624 15.7339L12.6378 15.337C12.5419 14.8848 12.1404 14.5455 11.6596 14.5455C11.1073 14.5455 10.6596 14.9932 10.6596 15.5455C10.6596 16.0978 11.1073 16.5455 11.6596 16.5455C11.9172 16.5455 12.152 16.4481 12.3293 16.2882L13.5542 16.6852C13.5446 16.774 13.5396 16.8642 13.5396 16.9555C13.5396 17.5958 13.7832 18.1791 14.1828 18.6179L13.4245 19.6609C13.39 19.6573 13.355 19.6555 13.3196 19.6555C12.7673 19.6555 12.3196 20.1032 12.3196 20.6555C12.3196 21.2078 12.7673 21.6555 13.3196 21.6555C13.8719 21.6555 14.3196 21.2078 14.3196 20.6555C14.3196 20.5107 14.2888 20.3731 14.2335 20.2488L14.9913 19.2065C15.3018 19.3472 15.6465 19.4255 16.0096 19.4255C16.3711 19.4255 16.7145 19.3478 17.024 19.2083L17.7765 20.2472C17.7207 20.3719 17.6896 20.51 17.6896 20.6555C17.6896 21.2078 18.1373 21.6555 18.6896 21.6555C19.2419 21.6555 19.6896 21.2078 19.6896 20.6555C19.6896 20.1032 19.2419 19.6555 18.6896 19.6555C18.6548 19.6555 18.6204 19.6573 18.5865 19.6607L17.8335 18.6212C18.2348 18.182 18.4796 17.5973 18.4796 16.9555C18.4796 16.8636 18.4746 16.7729 18.4648 16.6836L19.6804 16.2886C19.8577 16.4483 20.0923 16.5455 20.3496 16.5455C20.9019 16.5455 21.3496 16.0978 21.3496 15.5455C21.3496 14.9932 20.9019 14.5455 20.3496 14.5455C19.8686 14.5455 19.4669 14.8851 19.3712 15.3376L18.156 15.7324C17.8099 15.1264 17.2146 14.6811 16.5096 14.5361V13.2517Z" fill="white"/>
</svg>

<svg xmlns="http://www.w3.org/2000/svg" width="32" height="32" fill="none"><path fill="#FF6DC6" d="M26.23 19.765c2.47-.8 3.96-3.19 3.76-5.68a.53.53 0 0 0-.43-.47s-.89-.19-1.09-.23c-.1-.02-.14-.15-.08-.22.13-.14.75-.84.75-.84.16-.17.19-.44.07-.64-1.29-2.13-3.9-3.19-6.38-2.38-.71.23-1.33.65-1.87 1.18.34-.68.54-1.39.54-2.14 0-2.6-1.81-4.76-4.24-5.33a.559.559 0 0 0-.59.26s-.46.79-.56.97c-.05.09-.19.08-.23.01-.1-.17-.56-.98-.56-.98-.12-.2-.36-.32-.58-.26-2.42.56-4.24 2.72-4.24 5.32 0 .75.21 1.46.54 2.14-.54-.53-1.15-.94-1.86-1.17-2.48-.81-5.09.25-6.38 2.38-.12.2-.09.46.07.64 0 0 .61.68.75.83.07.07.02.21-.07.23l-1.1.23c-.23.05-.41.24-.43.47a5.48 5.48 0 0 0 3.76 5.68c.72.23 1.46.26 2.22.14-.68.35-1.28.81-1.72 1.42-1.53 2.1-1.33 4.91.3 6.8.15.18.41.23.63.13 0 0 .83-.37 1.02-.46.09-.04.2.04.19.13l-.12 1.12c-.02.23.1.47.32.56 2.3.96 5.03.28 6.56-1.82.44-.61.69-1.3.82-2.05.13.75.38 1.45.82 2.05 1.53 2.1 4.26 2.78 6.56 1.82.22-.09.34-.32.32-.56 0 0-.1-.91-.12-1.11-.01-.1.1-.18.19-.14l1.03.46c.21.1.48.05.63-.13 1.63-1.89 1.83-4.7.3-6.8-.44-.61-1.04-1.06-1.72-1.42.76.12 1.5.09 2.22-.14Z"/><path fill="#fff" d="M16.51 13.252a1 1 0 1 0-1 0v1.284a2.473 2.473 0 0 0-1.648 1.198l-1.224-.397a1 1 0 1 0-.309.951l1.225.397a2.46 2.46 0 0 0 .629 1.933l-.758 1.043a1 1 0 1 0 .809.588l.757-1.043a2.462 2.462 0 0 0 2.033.002l.752 1.04a1 1 0 1 0 .81-.587l-.753-1.04a2.461 2.461 0 0 0 .632-1.937l1.215-.395a1 1 0 1 0-.31-.951l-1.214.394a2.474 2.474 0 0 0-1.646-1.196v-1.284Z"/></svg>
